X: 23726
T: Listowel, The
R: polka
M: 2/4
K: Aminor
|:E|A>B cd|eA A>c|BG d>c|BG GB|
AA/B/ cd|eA A>B|c/B/A BG|A3:|
|:B|ce A>e|ce ed/c/|B/c/d Gd|Bd d>B|
ce A>B|cd e/f/e/d/|cA B/A/G|A3:|

